X:1
T:Title
%%score { 1 | 2 }
L:1/8
M:6/8
K:Eb
V:1 treble nm="Grand Piano"
V:2 bass 
V:1
 z3 z2[Q:1/4=87] [GB] | [GB]>[_G=A][=GB] [Ac][GB]G | G>_G=G AGF | E>FG GFE | [DF]3- [DF]2 [AB] | %5
 [GB]>[_G=A][=GB] [Ac][GB]G | G>_G=G AG[B,CF] | [G,B,E]>[B,DF][B,EG] [B,EG][B,EG][A,DF] | %8
[M:5/8] [G,B,E]-[G,B,E]- [G,B,E]3 |[M:1/8] B |[M:3/4] B>c de BG | G>A =A B2 G | %12
 [DF]>[EG] [FA] [FA]2 [DF] |[M:5/8] [B,EG]>[B,FA][EGB] [EGB]2 |[M:1/8] B |[M:3/4] B>c de BG | %16
[M:7/8] G>AB c3 c | %17
[M:3/4] BB BB [FA]>[DF][Q:1/4=84][Q:1/4=82][Q:1/4=79][Q:1/4=76][Q:1/4=73][Q:1/4=71][Q:1/4=68] | %18
[M:5/8] E-E- E3 |] %19
V:2
 z3 z2 [E,E] | [E,E]>[E,E][E,E] [E,E][E,E][E,B,E] | [E,B,E]>[E,=A,E][E,B,E] [E,CE][E,B,E][E,A,B,] | %3
 [E,G,B,]>[E,A,B,][E,B,E] [E,B,E][E,A,B,][E,G,B,] | [B,,B,]3- [B,,B,]2 [B,D] | %5
 [E,E]>[E,E][E,E] [E,E][E,E][E,B,E] | [E,B,E]>[E,B,E][E,B,E] [E,CE][E,B,E]A,, | %7
 B,,>B,,B,, B,,B,,B,, |[M:5/8] E,-E,- E,3 |[M:1/8] B, |[M:3/4] B,>[K:treble]C DE B,G, | %11
 G,>A, =A, B,2 [E,B,E] | [B,,B,]>[B,,B,] [B,,B,] [B,,B,]2 [B,,B,] |[M:5/8] E,>E,E, E,2 | %14
[M:1/8] B, |[M:3/4] B,>[K:treble]C DE B,G, |[M:7/8] G,>A,B, [A,EA]3 [A,EA] | %17
[M:3/4] [B,EG][B,EG] [B,EG][B,G][K:bass] [B,,B,]>[B,,A,] |[M:5/8] [E,G,]-[E,G,]- [E,G,]3 |] %19

